!!!COM: Anon.
!!!OTL: Estava eu bordando
!!!OTL: Romanceiro Folclorico do Brasil
!!!CNT: Brasil
!!!OCY: Brasil
!!!ODT: <1971///
!!!PSR: Irmaos Vitale
!!!PSP: Sao Paulo, Brasil
!!!PDT: 1950///
!!!PPE: Rossini Tavares de Lima
!!!PPG: page 39-40
!! Romance: Santa Helena Ou Iria
!! Place: Caxambu, Minas Gerais, Brasil
**kern
*clefG2
*k[]
*M2/4
*MM116
8g
8e
=
4c
4g
=
8a
8g
8g
8e
=
4c
4g
=
8a
4g
8g
=
8a
8g
8f
8e
=
8g
8f
8e
8d
=
4G
4f
=
8e
4d
8g
=
8a
8g
8f
8e
=
8g
8f
8e
8d
=
4A
4e
=
8d
4c
8r
==
*-
